DevCon_2019/Icons/SVG/icon_twitter.svg

<svg height="18" viewBox="0 0 22 18" width="22" xmlns="http://www.w3.org/2000/svg"><path d="m32.326127 19.3594039c.0273439.109375.0410155.2871087.0410155.5332019 0 1.9687453-.4785147 3.8691312-1.4355434 5.7011583-.9843727 1.9414014-2.365229 3.4863198-4.1425683 4.6347546-1.9414014 1.2851529-4.1699121 1.9277297-6.6855309 1.9277297-2.4062445 0-4.6074107-.6425768-6.6034999-1.9277297.3007803.0273438.6425768.0410155 1.0253882.0410155 1.9960892 0 3.7871001-.6152329 5.373034-1.8456987-.9570287 0-1.797847-.2802726-2.5224549-.8408183-.7246078-.5605458-1.2236297-1.2646453-1.4970667-2.1122997.273437.0273439.5332018.0410155.779295.0410155.3828114 0 .7656234-.0410155 1.1484348-.1230466-.9843727-.2187492-1.8046832-.7246078-2.4609317-1.5175745-.6562484-.7929666-.9843726-1.6953082-.9843726-2.7070248v-.082031c.6015612.3554681 1.2441374.5468735 1.9277298.5742174-.5742174-.4101553-1.0390599-.9296855-1.394528-1.5585901-.3554681-.6289045-.5332018-1.319333-.5332018-2.0712841s.2050776-1.4697228.6152329-2.1533152c1.0664037 1.3398408 2.3720644 2.4062445 3.9169828 3.1992112 1.5449184.7929666 3.192375 1.2304658 4.9423711 1.3124968-.0546872-.3281242-.0820311-.6562484-.0820311-.9843726 0-.7656234.191406-1.4833951.5742174-2.1533152s.9023416-1.1962864 1.55859-1.5790978c.6562485-.3828114 1.367184-.5742174 2.1328074-.5742174.6289046 0 1.2099581.1230466 1.7431599.3691398.5332019.2460931 1.0048805.5742173 1.4150357.9843726.9843727-.191406 1.9003859-.5332018 2.7480404-1.0253882-.3281243 1.0117166-.9570288 1.8046832-1.8867143 2.3789006.8203105-.1093749 1.6406211-.3417958 2.4609316-.697264-.6015612.8749978-1.3261685 1.6269495-2.1738229 2.255854z" fill="#eef0f2" fill-rule="evenodd" transform="translate(-13 -15)"/></svg>

<?xml version="1.0" encoding="UTF-8"?>
<svg width="22px" height="18px" viewBox="0 0 22 18" version="1.1" xmlns="http://www.w3.org/2000/svg" xmlns:xlink="http://www.w3.org/1999/xlink">
    <!-- Generator: Sketch 52.6 (67491) - http://www.bohemiancoding.com/sketch -->
    <title></title>
    <desc>Created with Sketch.</desc>
    <g id="Page-1" stroke="none" stroke-width="1" fill="none" fill-rule="evenodd">
        <g id="DESKTOP-1024PX" transform="translate(-91.000000, -6795.000000)" fill="#EEF0F2">
            <g id="FOOTER" transform="translate(0.000000, 6331.000000)">
                <g id="COLUMN-#1" transform="translate(10.000000, 63.000000)">
                    <g id="FOLLOW-US" transform="translate(0.000000, 339.000000)">
                        <g id="TWITTER" transform="translate(68.000000, 47.000000)">
                            <path d="M32.326127,19.3594039 C32.3534709,19.4687789 32.3671425,19.6465126 32.3671425,19.8926058 C32.3671425,21.8613511 31.8886278,23.761737 30.9315991,25.5937641 C29.9472264,27.5351655 28.5663701,29.0800839 26.7890308,30.2285187 C24.8476294,31.5136716 22.6191187,32.1562484 20.1034999,32.1562484 C17.6972554,32.1562484 15.4960892,31.5136716 13.5,30.2285187 C13.8007803,30.2558625 14.1425768,30.2695342 14.5253882,30.2695342 C16.5214774,30.2695342 18.3124883,29.6543013 19.8984222,28.4238355 C18.9413935,28.4238355 18.1005752,28.1435629 17.3759673,27.5830172 C16.6513595,27.0224714 16.1523376,26.3183719 15.8789006,25.4707175 C16.1523376,25.4980614 16.4121024,25.511733 16.6581956,25.511733 C17.041007,25.511733 17.423819,25.4707175 17.8066304,25.3886864 C16.8222577,25.1699372 16.0019472,24.6640786 15.3456987,23.8711119 C14.6894503,23.0781453 14.3613261,22.1758037 14.3613261,21.1640871 L14.3613261,21.0820561 C14.9628873,21.4375242 15.6054635,21.6289296 16.2890559,21.6562735 C15.7148385,21.2461182 15.249996,20.726588 14.8945279,20.0976834 C14.5390598,19.4687789 14.3613261,18.7783504 14.3613261,18.0263993 C14.3613261,17.2744482 14.5664037,16.5566765 14.976559,15.8730841 C16.0429627,17.2129249 17.3486234,18.2793286 18.8935418,19.0722953 C20.4384602,19.8652619 22.0859168,20.3027611 23.8359129,20.3847921 C23.7812257,20.0566679 23.7538818,19.7285437 23.7538818,19.4004195 C23.7538818,18.6347961 23.9452878,17.9170244 24.3280992,17.2471043 C24.7109106,16.5771842 25.2304408,16.0508179 25.8866892,15.6680065 C26.5429377,15.2851951 27.2538732,15.0937891 28.0194966,15.0937891 C28.6484012,15.0937891 29.2294547,15.2168357 29.7626565,15.4629289 C30.2958584,15.709022 30.767537,16.0371462 31.1776922,16.4473015 C32.1620649,16.2558955 33.0780781,15.9140997 33.9257326,15.4219133 C33.5976083,16.4336299 32.9687038,17.2265965 32.0390183,17.8008139 C32.8593288,17.691439 33.6796394,17.4590181 34.4999499,17.1035499 C33.8983887,17.9785477 33.1737814,18.7304994 32.326127,19.3594039 Z" id=""></path>
                        </g>
                    </g>
                </g>
            </g>
        </g>
    </g>
</svg>
